X: 36
T: No_42_The_Raven_Says.krn
N: Derived from No_42_The_Raven_Says.krn
%%abc-version 2.0
%%abcx-abcm2ps-target-version 5.9.1 (29 Sep 2008)
%%abc-creator hum2abc beta
%%abcx-conversion-date 2019/03/15 08:27:55
%%humdrum-veritas 1961800997
%%humdrum-veritas-data 2277964190
%%linebreak <none>
%%barnumbers 0
L: 1/8
M: 3/4
%%staves {1 2}
V: 1 clef=bass
V: 2 clef=bass
K: E
[V:1] [K:clef=bass][M:3/4]B,3/B,/B,2A,/A,3/ [I:setbarnb 2]| 
[V:2] [K:clef=bass][M:3/4]z G,,z2z2 | 
[V:1] [M:3/8]B,2G,/ z/ | 
[V:2] [M:3/8]G,,G,, z | 
[V:1] [M:5/8]B,/B,B,/B,2A, | 
[V:2] [M:5/8]z G,, z G,, z | 
[V:1] [M:2/4]B,F, E, z | 
[V:2] [M:2/4]G,, z G,, z | 
[V:1] A,3/A,/B,2 | 
[V:2] z G,, z G,, | 
[V:1] [M:5/8]A,B,B,A,3/F,/ | 
[V:2] [M:5/8]z G,, z G,, z | 
[V:1] [M:3/4]E,2E, z A,F, | 
[V:2] [M:3/4]G,, z G,, z G,, z | 
[V:1] E,2E,2C, z | 
[V:2] G,, z G,, z G,, z | 
[V:1] [M:2/4]E,E, A,F,/F,/ | 
[V:2] [M:2/4]z G,, z G,, | 
[V:1] [M:3/8]E,E,2 | 
[V:2] [M:3/8]z G,, z | 
[V:1] [M:2/4]B,,B,, B,,3/B,,/ | 
[V:2] [M:2/4]G,, z G,, z | 
[V:1] B,,2z2 :|]  
[V:2] G,, z G,, z :|]  
[V:1] [M:2/4]B,,B,, B,,3/B,,/ [I:setbarnb 14]| 
[V:2] [M:2/4]G,, z G,,G,, | 
[V:1] B,,2B,, z |]  
[V:2] G,, z G,, z |]  



